X:1
T:Title
%%score { ( 1 3 ) | ( 2 4 ) }
L:1/8
M:6/4
K:Ab
V:1 treble nm="Grand Piano"
V:3 treble 
V:2 bass 
V:4 bass 
V:1
 z6 z4 [CE][CE] | [CA]4 [CA]2 [EA]4 [EB]2 | [Ec]2 [Fc]4- [Fc]4 [EA][EA] | B4 =A2 B4 E2 | %4
[M:5/4] [CA]2- [CA]2- [CA]6 |[M:1/4] [CE][CE] |[M:6/4] [CA]4 [CA]2 [EA]4 [EB]2 | %7
 [Ec]2 [Fc]4- [Fc]4 [EA][EA] | [=DB]4 [DF]2 [DG]4 [DA]2 | B12 | [Ec]4 [DB]2 [CA]2 [Ec]4 | %11
 [Fd]4 [DF]2 [CE]2 [Ec]3 c | e4 A2 G4 A2 | B12 | [Ec]4 [DB]2 [CA]2 [Ec]4 | %15
[M:27/16] [_Ge]/-[Ge]/-[Ge]/-[Ge]/-[Ge]-<[Ge][GA]-<[GA][FA]-<[FA][Fd]/-[Fd]/-[Fd]/-[Fd]/-[Fd]/-[Fd]-<[Fd][AB] | %16
[M:6/4] [Ae]4 c2 c4 B2 | [CA]12 |] %18
V:2
 z6 z4 [A,,A,][A,,A,] | [A,,E,]4 [A,,E,]2 [C,A,]4 [E,G,]2 | %2
 [A,,A,]2 [A,,A,]4- [A,,A,]4 [C,A,][C,A,] | [E,G,D]4 [E,_G,C]2 [E,=G,D]4 [E,G,D]2 | %4
[M:5/4] [A,,A,]2- [A,,A,]2- [A,,A,]6 |[M:1/4] [A,,A,][A,,A,] | %6
[M:6/4] [A,,E,]4 [A,,E,]2 [C,A,]4 [E,G,]2 | [A,,A,]2 [A,,A,]4- [A,,A,]4 [C,A,][C,A,] | %8
 [B,,A,]4 [B,,A,]2 [B,,G,]4 [B,,F,]2 | E6 z6 | [A,,A,]4 [A,,E,]2 [A,,E,]2 [A,,A,]4 | %11
 [D,A,]4 [D,A,]2 [A,,A,]2 [A,,A,]3 [A,E] | z6 E6 | [G,B,E]4 [F,A,]2 [E,G,]6 | %14
 [A,,A,]4 [A,,E,]2 [A,,E,]2 [A,,A,]4 | %15
[M:27/16] [C,A,]/-[C,A,]/-[C,A,]/-[C,A,]/-[C,A,]-<[C,A,][C,A,]-<[C,A,][D,A,]-<[D,A,][D,A,]/-[D,A,]/-[D,A,]/-[D,A,]/-[D,A,]/-[D,A,]-<[D,A,][=D,B,] | %16
[M:6/4] [E,CE]4 [E,A,E]2 [E,A,E]4 [E,G,D]2 | [A,,E,A,]12 |] %18
V:3
 x12 | x12 | x12 | x12 |[M:5/4] x10 |[M:1/4] x2 |[M:6/4] x12 | x12 | x12 | z6 D6 | x12 | x12 | %12
 x12 | z4 =D2 _D6 | x12 |[M:27/16] x27/2 |[M:6/4] x12 | x12 |] %18
V:4
 x12 | x12 | x12 | x12 |[M:5/4] x10 |[M:1/4] x2 |[M:6/4] x12 | x12 | x12 | [E,G,]12 | x12 | x12 | %12
 [A,CE]6 [B,D]4 [A,C]2 | x12 | x12 |[M:27/16] x27/2 |[M:6/4] x12 | x12 |] %18

